dist/icons/svgs/rotate-left-outline.svg

<svg xmlns="http://www.w3.org/2000/svg" width="24" height="24" fill="currentcolor" class="icon-rotate-left-outline" viewBox="0 0 24 24">
  <path d="M7.46875 6.80469L9.07031 8.40625C9.34375 8.67969 9.5 9.03125 9.5 9.38281C9.5 10.1641 8.875 10.75 8.09375 10.75H3.5625C3.01562 10.75 2.625 10.3594 2.625 9.8125V5.28125C2.625 4.5 3.21094 3.875 3.99219 3.875C4.34375 3.875 4.69531 4.03125 4.96875 4.30469L6.14062 5.47656C7.70312 4.10938 9.73438 3.25 12 3.25C16.8047 3.25 20.75 7.19531 20.75 12C20.75 16.8438 16.8047 20.75 12 20.75C10.0078 20.75 8.21094 20.125 6.72656 19.0312C6.33594 18.7188 6.21875 18.1328 6.53125 17.7031C6.84375 17.2734 7.42969 17.1953 7.85938 17.5078C8.99219 18.3672 10.4375 18.875 12 18.875C15.7891 18.875 18.875 15.8281 18.875 12C18.875 8.21094 15.7891 5.125 12 5.125C10.2812 5.125 8.67969 5.78906 7.46875 6.80469ZM4.5 6.45312V8.875H6.92188L4.5 6.45312Z"/>
</svg>

<svg xmlns="http://www.w3.org/2000/svg" width="24" height="24" fill="currentColor" class="icon-rotate-left-outline" viewBox="0 0 24 24">
  <path d="M7.469 6.805 9.07 8.406c.274.274.43.625.43.977 0 .781-.625 1.367-1.406 1.367H3.563c-.547 0-.938-.39-.938-.937V5.28c0-.781.586-1.406 1.367-1.406.352 0 .703.156.977.43L6.14 5.477C7.703 4.109 9.734 3.25 12 3.25c4.805 0 8.75 3.945 8.75 8.75 0 4.844-3.945 8.75-8.75 8.75a8.8 8.8 0 0 1-5.273-1.719c-.391-.312-.508-.898-.196-1.328a.94.94 0 0 1 1.328-.195A6.84 6.84 0 0 0 12 18.875 6.86 6.86 0 0 0 18.875 12c0-3.79-3.086-6.875-6.875-6.875-1.719 0-3.32.664-4.531 1.68M4.5 6.453v2.422h2.422z"/>
</svg>
